X: 32045
T: Peggy's
R: jig
M: 6/8
K: Gmajor
|:B3 GBd|cBc E3|F3 DFA|GBe d2c|
B3 GBd|cBc E3|F3 DFA|GBA G3:|
|:d^cd def|gbg d2g|f3 A2B|cBc B2c|
d2d def|gbg d2g|fed cAF|AGF G3:|

